svgs/thin/book-arrow-up.svg

<svg xmlns="http://www.w3.org/2000/svg" viewBox="0 0 448 512"><!--! Font Awesome Pro 6.3.0 by @fontawesome - https://fontawesome.com License - https://fontawesome.com/license (Commercial License) Copyright 2023 Fonticons, Inc. --><path d="M353.1 248.5c3.125-3.125 3.125-8.188 0-11.31l-106.8-106.8c-3.125-3.125-8.188-3.125-11.31 0l-108 108C125.4 239.9 124.6 241.9 124.6 244s.7813 4.094 2.344 5.656c3.125 3.125 8.188 3.125 11.31 0l94.34-94.34V504c0 4.406 3.578 8 8 8s8-3.594 8-8V155.3l93.17 93.17C344.9 251.6 349.9 251.6 353.1 248.5zM448 384V32c0-17.67-14.33-32-32-32H64C28.66 0 0 28.65 0 64v391.1c0 30.93 25.07 56 56 56l128 .002c4.418 0 8-3.582 8-8s-3.582-8.002-8-8.002h-128c-23.38 0-42.13-20.14-39.8-43.99c2.023-20.78 20.7-36.01 41.59-36.01L184 415.1c4.418 0 8-3.582 8-8s-3.582-7.998-8-7.998l-128-.0039c-15.68 0-29.82 6.516-40 16.93V64c0-26.51 21.49-48 48-48h352c8.836 0 16 7.162 16 16v352c0 8.836-7.164 15.1-16 15.1l-120-.001c-4.418 0-8 3.58-8 7.998S291.6 416 296 416l104 .0059v79.99h-104c-4.418 0-8 3.58-8 7.998s3.582 8.006 8 8.006L439.1 512C444.4 512 448 508.4 448 504c0-4.422-3.586-8.008-8.008-8.008H416v-79.99C433.7 416 448 401.7 448 384z"/></svg>

<svg xmlns="http://www.w3.org/2000/svg" viewBox="0 0 448 512"><!-- Font Awesome Pro 6.0.0-alpha2 by @fontawesome - https://fontawesome.com License - https://fontawesome.com/license (Commercial License) --><path d="M353.07 248.484C356.195 245.359 356.195 240.297 353.07 237.172L246.242 130.344C243.117 127.219 238.055 127.219 234.93 130.344L126.93 238.344C125.367 239.906 124.586 241.938 124.586 244S125.367 248.094 126.93 249.656C130.055 252.781 135.117 252.781 138.242 249.656L232.586 155.312V504C232.586 508.406 236.164 512 240.586 512S248.586 508.406 248.586 504V155.312L341.758 248.484C344.883 251.609 349.945 251.609 353.07 248.484ZM448 384.006V32C448 14.326 433.672 0 416 0H64C28.656 0 0 28.652 0 64V455.99C0 486.918 25.07 511.992 56 511.992L184 511.994C188.418 511.994 192 508.412 192 503.994V503.99C192 499.572 188.418 495.992 184 495.992H56C32.625 495.992 13.875 475.848 16.195 452.002C18.219 431.219 36.898 415.988 57.781 415.99L184 415.996C188.418 415.996 192 412.414 192 407.996S188.418 399.998 184 399.998L56 399.994C40.324 399.994 26.176 406.51 16 416.928V64C16 37.49 37.492 16 64 16H416C424.836 16 432 23.162 432 32V384.006C432 392.842 424.836 400.006 416 400.006L296 400.002C291.582 400.002 288 403.582 288 408S291.578 416 296 416L400 416.006V495.992H296C291.582 495.992 288 499.572 288 503.99V503.996C288 508.414 291.582 511.996 296 511.996L439.992 512C444.414 512.004 448 508.418 448 504C448 499.578 444.414 495.992 439.992 495.992H416V416.006C433.672 416.006 448 401.678 448 384.006Z"/></svg>
